ix/copyright_bulk.svg

<svg viewBox="0 0 24 24" fill="none" xmlns="http://www.w3.org/2000/svg" height="1em" width="1em">
  <path opacity="0.4" d="M12 22C6.48 22 2 17.52 2 12C2 6.48 6.48 2 12 2C17.52 2 22 6.48 22 12C22 17.52 17.52 22 12 22Z" fill="#292D32"/>
  <path d="M12.2402 16.75C9.62023 16.75 7.49023 14.62 7.49023 12C7.49023 9.38 9.62023 7.25 12.2402 7.25C13.3902 7.25 14.5102 7.67 15.3702 8.44C15.6802 8.71 15.7102 9.19 15.4402 9.5C15.1602 9.81 14.6902 9.84001 14.3802 9.57001C13.7902 9.05001 13.0302 8.76001 12.2402 8.76001C10.4502 8.76001 8.99023 10.22 8.99023 12.01C8.99023 13.8 10.4502 15.26 12.2402 15.26C13.0202 15.26 13.7902 14.97 14.3802 14.45C14.6902 14.18 15.1702 14.21 15.4402 14.52C15.7102 14.83 15.6802 15.31 15.3702 15.58C14.5002 16.33 13.3902 16.75 12.2402 16.75Z" fill="#292D32"/>
</svg>

<svg viewBox="0 0 24 24" fill="none" xmlns="http://www.w3.org/2000/svg" height="1em" width="1em">
  <path opacity=".4" d="M12 22C6.48 22 2 17.52 2 12S6.48 2 12 2s10 4.48 10 10-4.48 10-10 10Z" fill="#292D32"/>
  <path d="M12.24 16.75c-2.62 0-4.75-2.13-4.75-4.75s2.13-4.75 4.75-4.75c1.15 0 2.27.42 3.13 1.19.31.27.34.75.07 1.06-.28.31-.75.34-1.06.07-.59-.52-1.35-.81-2.14-.81-1.79 0-3.25 1.46-3.25 3.25s1.46 3.25 3.25 3.25c.78 0 1.55-.29 2.14-.81.31-.27.79-.24 1.06.07s.24.79-.07 1.06a4.8 4.8 0 0 1-3.13 1.17Z" fill="#292D32"/>
</svg>
